svgs/sharp-solid/people-line.svg

<svg xmlns="http://www.w3.org/2000/svg" viewBox="0 0 640 512"><!--! Font Awesome Pro 6.6.0 by @fontawesome - https://fontawesome.com License - https://fontawesome.com/license (Commercial License) Copyright 2024 Fonticons, Inc. --><path d="M320 112a40 40 0 1 0 0-80 40 40 0 1 0 0 80zM144 208a40 40 0 1 0 0-80 40 40 0 1 0 0 80zm392-40a40 40 0 1 0 -80 0 40 40 0 1 0 80 0zM96 224l-14.1 0L75 236.3 19 337.1l-11.7 21 42 23.3 11.7-21 27-48.6L88 384l112 0 0-72.2 27 48.6 11.7 21 42-23.3-11.7-21-35.2-63.5 3.4-6.3L264 217.5l0 86.5 112 0 0-86.5 26.9 49.9 3.4 6.3L371 337.1l-11.7 21 42 23.3 11.7-21 27-48.6 0 72.2 112 0 0-72.2 27 48.6 11.7 21 42-23.3-11.7-21L565 236.3 558.1 224 544 224l-96 0-14 0-44.9-83.4L382.3 128 368 128l-96 0-14.3 0-6.8 12.6L206 224l-14 0-96 0zM32 416L0 416l0 64 32 0 576 0 32 0 0-64-32 0L32 416z"/></svg>

<svg xmlns="http://www.w3.org/2000/svg" viewBox="0 0 640 512"><!--! Font Awesome Pro 6.4.2 by @fontawesome - https://fontawesome.com License - https://fontawesome.com/license (Commercial License) Copyright 2023 Fonticons, Inc. --><path d="M320 112a40 40 0 1 0 0-80 40 40 0 1 0 0 80zM144 208a40 40 0 1 0 0-80 40 40 0 1 0 0 80zm392-40a40 40 0 1 0 -80 0 40 40 0 1 0 80 0zM96 224H81.9L75 236.3 19 337.1l-11.7 21 42 23.3 11.7-21 27-48.6V384H200V311.8l27 48.6 11.7 21 42-23.3-11.7-21-35.2-63.5 3.4-6.3L264 217.5V304H376V217.5l26.9 49.9 3.4 6.3L371 337.1l-11.7 21 42 23.3 11.7-21 27-48.6V384H552V311.8l27 48.6 11.7 21 42-23.3-11.7-21L565 236.3 558.1 224H544 448 434l-44.9-83.4L382.3 128H368 272 257.7l-6.8 12.6L206 224H192 96zM32 416H0v64H32 608h32V416H608 32z"/></svg>
